img/partners/img-8.svg

<svg width="201" height="55" viewBox="0 0 201 55" fill="none" xmlns="http://www.w3.org/2000/svg">
<g clip-path="url(#clip0_400_5349)">
<path fill-rule="evenodd" clip-rule="evenodd" d="M201 0C200.4 0.829879 199.723 1.60153 198.979 2.30477C189.185 11.5497 177.436 18.8043 165.371 24.7063C164.94 24.5383 164.699 24.3401 164.264 24.1721C157.682 21.466 150.433 20.8274 143.479 22.3412C160.869 15.5303 178.336 8.92183 195.756 2.18415C196.256 1.98167 200.991 0 201 0ZM0.861575 29.2943C4.84711 28.3982 9.11701 27.7176 13.1198 28.8635C15.5283 29.5355 16.8425 32.0212 16.9243 34.3863C17.0967 38.6943 16.9545 43.0023 17.0019 47.3404C12.8613 48.7233 8.35868 49.2919 4.04569 48.482C2.32222 48.1675 0.736624 46.9656 0.348842 45.208C-0.129421 43.054 -0.206978 40.5898 0.809871 38.5521C1.67161 36.8849 3.61482 36.2129 5.38138 36.075C7.75955 35.8561 10.1571 35.9926 12.495 36.48C12.4304 35.054 12.3571 33.1284 10.7112 32.6028C7.75547 31.8489 4.61013 32.3788 1.72331 33.1715C1.45617 31.8791 1.16749 30.5867 0.861575 29.2943ZM5.87257 39.7799C4.54981 40.8827 4.73939 43.2263 5.56666 44.579C7.62621 45.7938 10.2588 45.1261 12.4605 44.579C12.4605 42.9506 12.4605 41.3222 12.4605 39.6937C10.3062 39.4094 7.9709 38.9958 5.86826 39.7584L5.87257 39.7799ZM20.6255 29.0573C24.3965 28.2122 28.2886 28.0503 32.1168 28.5791C33.7411 28.8333 35.5939 29.4709 36.2746 31.1122C36.8499 32.6927 36.7896 34.4347 36.1066 35.9716C35.4215 37.376 33.7799 37.7595 32.3839 38.0567C34.2065 38.173 36.2617 39.0002 36.8089 40.9043C37.3733 42.8816 37.3647 45.3372 35.8998 46.9355C34.4133 48.3743 32.2202 48.5725 30.264 48.762C26.9877 48.9985 23.6944 48.7883 20.4747 48.1374C20.8022 46.733 21.1339 45.3286 21.4485 43.9199C24.4042 44.7255 27.5668 45.264 30.5915 44.5575C32.6036 44.1267 32.6769 40.6803 30.6949 40.1633C28.8292 39.6334 26.8645 39.8833 24.9514 39.8316C24.9514 38.6426 24.9514 37.4565 24.9514 36.2732C26.83 36.2086 28.756 36.4584 30.5915 35.976C31.7247 35.683 31.953 34.2054 31.4748 33.2921C31.0439 32.6459 30.2382 32.4305 29.5272 32.3529C26.8692 32.0754 24.1825 32.3542 21.638 33.1715C21.2933 31.8058 20.953 30.4359 20.6255 29.066V29.0573ZM114.503 29.9189C118.932 28.5748 124.142 27.1446 128.463 29.5269C131.91 28.437 135.788 27.6443 139.325 28.9195C142.031 29.9792 142.772 33.1628 142.884 35.7692C142.992 39.9522 142.906 44.1396 142.932 48.3269C141.372 48.3269 139.817 48.3269 138.261 48.3269C138.128 44.2774 138.334 40.2236 138.145 36.1741C138.072 34.8817 137.714 33.2361 136.318 32.7924C134.431 32.2539 132.44 32.6416 130.57 33.0293C130.867 34.3276 131.032 35.6526 131.061 36.984C131.087 40.7535 131.061 44.5316 131.061 48.3054H126.361C126.326 44.4024 126.417 40.4993 126.309 36.5963C126.244 35.235 126.046 33.4299 124.585 32.8484C122.862 32.2495 120.966 32.6287 119.212 32.9776C119.212 38.0869 119.212 43.1961 119.212 48.3097C117.657 48.3097 116.102 48.3097 114.55 48.3356C114.438 42.1924 114.525 36.0492 114.507 29.9017L114.503 29.9189ZM41.096 28.8376H45.8356C45.8571 32.7148 45.7925 36.592 45.8658 40.4993C45.9476 41.8779 46.1286 43.7002 47.628 44.2817C49.5281 44.8806 51.5963 44.6135 53.4878 44.0965C53.4361 39.0131 53.4878 33.9254 53.4878 28.8376C55.0605 28.8376 56.6375 28.8376 58.2274 28.8678C58.2015 34.9894 58.2274 41.1111 58.2274 47.237C54.147 48.5294 49.6789 49.5159 45.4392 48.426C42.5739 47.642 41.3761 44.5488 41.2382 41.8348C41.04 37.5268 41.1995 33.1671 41.1477 28.8376H41.096ZM61.1831 48.3356C62.6222 41.8305 64.0355 35.3255 65.4918 28.8247C67.5255 28.8247 69.5592 28.8247 71.5972 28.8247C73.1052 32.62 74.1178 36.5791 75.2337 40.5036C76.1991 36.5665 77.3741 32.6838 78.7539 28.8721C80.8092 28.7515 82.873 28.8247 84.9326 28.8118C86.3674 35.3125 87.8237 41.809 89.2412 48.3097C87.6212 48.3097 86.0011 48.3097 84.3811 48.3097C83.2823 43.67 82.3517 38.9958 81.2659 34.3562C79.9173 39.0045 78.6203 43.6657 77.2976 48.3226C75.1949 48.4734 73.0148 47.461 72.3124 45.3674C71.1879 41.7874 70.2313 38.1041 69.1929 34.4639C68.0167 39.0562 67.1334 43.7217 66.0735 48.3442L61.1831 48.3356ZM90.5295 28.8376H95.4113C96.3477 33.0939 97.2884 37.3502 98.2335 41.6065C98.4748 42.5413 98.6643 43.5968 99.4054 44.2817C100.47 44.9969 101.801 44.5402 102.96 44.3765C104.046 39.2069 105.27 34.0374 106.342 28.8678C107.975 28.7902 109.613 28.8118 111.246 28.8204C109.341 37.5455 107.43 46.2663 105.511 54.9828C103.874 54.9828 102.236 54.9828 100.599 54.9828C101.064 52.8374 101.54 50.6935 102.025 48.5509C100.125 48.7663 97.9534 48.9818 96.3463 47.7324C94.6573 46.3754 94.0411 44.174 93.5025 42.1708C92.4469 37.7508 91.5119 33.2878 90.5166 28.8376H90.5295Z" fill="#F37021"/>
<path fill-rule="evenodd" clip-rule="evenodd" d="M143.479 22.341C150.436 20.8168 157.692 21.4479 164.281 24.1503L165.389 24.6845C162.097 26.9117 156.211 28.398 152.462 29.3845C149.304 27.1013 146.159 24.8008 142.983 22.5133L143.479 22.341Z" fill="#00529C"/>
<path fill-rule="evenodd" clip-rule="evenodd" d="M165.376 24.6846C170.779 26.8946 175.523 30.1557 180.103 33.7658C182.185 35.3943 184.157 37.1587 186.006 39.0474C175.99 36.1926 165.979 33.3048 155.974 30.384C155.324 30.216 153.096 29.4277 152.428 29.3846C154.509 28.8202 161.83 27.0841 165.376 24.6846Z" fill="#00B2D5"/>
</g>
<defs>
<clipPath id="clip0_400_5349">
<rect width="201" height="55" fill="white"/>
</clipPath>
</defs>
</svg>

<svg width="201" height="55" fill="none" xmlns="http://www.w3.org/2000/svg"><g clip-path="url(#clip0_400_5349)" fill-rule="evenodd" clip-rule="evenodd"><path d="M201 0a16.37 16.37 0 01-2.021 2.305c-9.794 9.245-21.543 16.5-33.608 22.401-.431-.168-.672-.366-1.107-.534a35.052 35.052 0 00-20.785-1.83c17.39-6.812 34.857-13.42 52.277-20.158C196.256 1.982 200.991 0 201 0zM.862 29.294c3.985-.896 8.255-1.576 12.258-.43 2.408.671 3.723 3.157 3.804 5.522.173 4.308.03 8.616.078 12.954-4.14 1.383-8.643 1.952-12.956 1.142-1.724-.315-3.31-1.516-3.697-3.274-.478-2.154-.556-4.618.46-6.656.863-1.667 2.806-2.34 4.572-2.477a24.053 24.053 0 017.114.405c-.065-1.426-.138-3.352-1.784-3.877-2.956-.754-6.1-.224-8.988.569a138.93 138.93 0 00-.861-3.878zm5.01 10.486c-1.322 1.103-1.133 3.446-.305 4.799 2.06 1.215 4.692.547 6.893 0v-4.885c-2.154-.285-4.49-.698-6.592.064l.005.022zm14.753-10.723a32.323 32.323 0 0111.492-.478c1.624.254 3.477.892 4.158 2.533a6.495 6.495 0 01-.168 4.86c-.685 1.404-2.327 1.788-3.723 2.085 1.822.116 3.878.943 4.425 2.847.564 1.978.556 4.433-.91 6.031-1.486 1.44-3.679 1.637-5.635 1.827a36.26 36.26 0 01-9.79-.625c.328-1.404.66-2.808.974-4.217 2.956.805 6.119 1.344 9.143.637 2.013-.43 2.086-3.877.104-4.394-1.866-.53-3.83-.28-5.744-.331v-3.559c1.879-.064 3.805.185 5.64-.297 1.134-.293 1.362-1.77.884-2.684-.431-.646-1.237-.861-1.948-.94a19.258 19.258 0 00-7.889.82 336.63 336.63 0 01-1.013-4.106v-.009zm93.878.862c4.429-1.344 9.639-2.774 13.96-.392 3.447-1.09 7.325-1.883 10.862-.608 2.706 1.06 3.447 4.244 3.559 6.85.108 4.183.022 8.37.048 12.558h-4.671c-.133-4.05.073-8.103-.116-12.153-.073-1.292-.431-2.938-1.827-3.382-1.887-.538-3.878-.15-5.748.237.297 1.299.462 2.624.491 3.955.026 3.77 0 7.548 0 11.321h-4.7c-.035-3.903.056-7.806-.052-11.709-.065-1.361-.263-3.166-1.724-3.748-1.723-.599-3.619-.22-5.373.13V48.31c-1.555 0-3.11 0-4.662.026-.112-6.144-.025-12.287-.043-18.434l-.004.017zm-73.407-1.081h4.74c.021 3.877-.044 7.754.03 11.661.082 1.379.263 3.201 1.762 3.783 1.9.599 3.968.332 5.86-.185-.052-5.084 0-10.172 0-15.26 1.572 0 3.15 0 4.74.03-.026 6.122 0 12.244 0 18.37-4.081 1.292-8.55 2.279-12.789 1.189-2.865-.784-4.063-3.877-4.2-6.591-.199-4.308-.04-8.668-.091-12.997h-.052zm20.087 19.498c1.44-6.505 2.852-13.01 4.309-19.511h6.105c1.508 3.795 2.52 7.754 3.637 11.679.965-3.938 2.14-7.82 3.52-11.632 2.055-.12 4.119-.047 6.179-.06 1.434 6.5 2.89 12.997 4.308 19.498h-4.86c-1.099-4.64-2.03-9.314-3.115-13.954-1.349 4.648-2.646 9.31-3.968 13.967-2.103.15-4.283-.862-4.986-2.956-1.124-3.58-2.08-7.263-3.12-10.903-1.175 4.592-2.059 9.258-3.118 13.88l-4.89-.008zM90.53 28.838h4.882c.937 4.256 1.877 8.512 2.823 12.768.24.935.43 1.99 1.171 2.676 1.065.715 2.396.258 3.555.095 1.086-5.17 2.31-10.34 3.382-15.51 1.633-.077 3.271-.055 4.904-.047-1.905 8.725-3.816 17.446-5.735 26.163H100.6c.465-2.146.941-4.29 1.426-6.432-1.9.215-4.072.43-5.679-.819-1.689-1.357-2.305-3.558-2.844-5.561-1.055-4.42-1.99-8.883-2.985-13.333h.013z" fill="#F37021"/><path d="M143.479 22.341a35.051 35.051 0 0120.802 1.81l1.108.534c-3.292 2.227-9.178 3.713-12.927 4.7-3.158-2.284-6.303-4.584-9.479-6.872l.496-.172z" fill="#00529C"/><path d="M165.376 24.685c5.403 2.21 10.147 5.47 14.727 9.08a59.943 59.943 0 015.903 5.282 4899.855 4899.855 0 01-30.032-8.663c-.65-.168-2.878-.956-3.546-1 2.081-.564 9.402-2.3 12.948-4.7z" fill="#00B2D5"/></g><defs><clipPath id="clip0_400_5349"><path fill="#fff" d="M0 0h201v55H0z"/></clipPath></defs></svg>
